!! 00046] TT[KA
!! NN
!!!OTL: Wode jiaxiang duo meihao (Wie schoen ist meine Heimat)
!!!ARE: Heilongjiang, Norden
!! Ethnic Group: Hezhe
!! III, 74
!!!SCT: C0280
!!!YEM: Copyright 1995, estate of Helmut Schaffrath.
**kern
*ICvox
*Ivox
*M2/4
*k[f#]
*G:
{8.dd
16gg
16b
16dd
16a
16b
=1
8g
16a
16b
8e
8d
=2
8.dd
16gg
16b
16dd
16a
16b
=3
4dd
4dd}
=4
{8.dd
16gg
8b
8dd
=5
8g
16a
16b
8e
8d
=6
8g
16B
16d
16e
16g
16e
16d
=7
4d
4d}
=8
{8g
8B
8d
8e
=9
8g
16g
16e
4g
=10
8g
16g
16a
8dd
16ee
16dd
=11
4b
4g}
=12
{8dd
16ee
16gg
8b
8dd
=13
8g
8b
8e
8d
=14
8g
16B
16d
16e
16g
16e
16d
=15
4d
4d}
==
!!!AGN: Xiaodiao. Zanmei jiaxiang
!! Dieses Volk lebt vom Fischen. 1949 gab es nur weniger als 1000
!!    Menschen dieser Minderheit an der Grenze zur Sowjetunion.
!!!ONB: ESAC (Essen Associative Code) Database: CHINA
!!!AMT: simple duple
!!!AIN: vox
!!!EED: Helmut Schaffrath
!!!EEV: 1.0
*-
